icons/desktop/16/send-tab-to-device-right-16.svg

<svg width="16" height="16" viewBox="0 0 16 16" fill="none" xmlns="http://www.w3.org/2000/svg">
<path fill-rule="evenodd" clip-rule="evenodd" d="M4 2C4.52053 2 5.15157 2.03097 5.86133 2.13281L6.08691 2.17578C7.19485 2.43961 7.99987 3.43444 8 4.59473V11.4072C7.99981 12.5882 7.17599 13.5681 6.06543 13.8281L5.83984 13.8701C5.28512 13.9486 4.66902 14 4 14C3.60949 14 3.15677 13.9823 2.65527 13.9307L2.13867 13.8672C0.916144 13.6925 0.000223676 12.6429 0 11.4053V4.59277C0.000112329 3.33303 0.937287 2.3014 2.16016 2.12891C2.71489 2.05042 3.33097 2 4 2ZM3.375 11.5C3.03 11.5 2.75 11.78 2.75 12.125C2.75 12.47 3.03 12.75 3.375 12.75H4.625C4.97 12.75 5.25 12.47 5.25 12.125C5.25 11.78 4.97 11.5 4.625 11.5H3.375ZM4 3.5C3.40713 3.5 2.86132 3.54476 2.37012 3.61426C1.86316 3.68576 1.50011 4.10473 1.5 4.59277V10H6.5V4.59473C6.49986 4.1069 6.13628 3.68681 5.64941 3.61719C5.02127 3.52705 4.46142 3.5 4 3.5Z" fill="black"/>
<path d="M11.7051 5.62207C11.9671 5.36009 12.416 5.54601 12.416 5.91699L12.417 5.91602V7.25H15.25C15.6641 7.25019 16 7.5859 16 8C16 8.4141 15.6641 8.74981 15.25 8.75H12.417V10.0811C12.417 10.453 11.968 10.6379 11.7061 10.376L9.62305 8.29297C9.46005 8.13097 9.46006 7.8671 9.62305 7.7041L11.7051 5.62207Z" fill="black"/>
</svg>

<!-- This Source Code Form is subject to the terms of the Mozilla Public
   - License, v. 2.0. If a copy of the MPL was not distributed with this
   - file, You can obtain one at http://mozilla.org/MPL/2.0/. -->
<svg xmlns="http://www.w3.org/2000/svg" width="16" height="16" fill="context-fill" fill-opacity="context-fill-opacity" viewBox="0 0 16 16">
    <path fill-rule="evenodd" d="M4 2c.52 0 1.152.031 1.861.133l.226.043A2.49 2.49 0 0 1 8 4.595v6.812a2.49 2.49 0 0 1-1.935 2.421l-.225.042a13 13 0 0 1-3.185.06l-.516-.063A2.49 2.49 0 0 1 0 11.405V4.593C0 3.333.937 2.3 2.16 2.129A13 13 0 0 1 4 2m-.625 9.5a.625.625 0 0 0 0 1.25h1.25a.625.625 0 0 0 0-1.25zM4 3.5c-.593 0-1.139.045-1.63.114a.995.995 0 0 0-.87.979V10h5V4.595a.99.99 0 0 0-.85-.978A12 12 0 0 0 4 3.5" clip-rule="evenodd" />
    <path d="M11.705 5.622a.417.417 0 0 1 .711.295l.001-.001V7.25h2.833a.75.75 0 0 1 0 1.5h-2.833v1.331a.417.417 0 0 1-.71.295L9.622 8.293a.416.416 0 0 1 0-.589z" />
</svg>
